app/data/icons/themes/playful/display/overlay-grid.svg

<svg xmlns="http://www.w3.org/2000/svg" fill-rule="evenodd" stroke-linecap="round" viewBox="0 0 22 22"><path fill="url(#a)" d="M2.51 2.48h17v16.99h-17z"/><g fill="none"><path stroke="#b6b6b6" d="M19.2 5H3.03M19.2 8H3.03m16.17 3H3.03m16.17 3H3.03m16.17 3H3.03"/><path stroke="#000" stroke-linejoin="round" stroke-width="1.02" d="M2.51 2.52H19.5V19.5H2.51z"/><g stroke="#b6b6b6"><path d="M6 2.89V19"/><path stroke-width=".98" d="M9 3v16.23M12 3v16.23m3-16.25V19.1m3-16.12V19.1"/></g><g stroke="#333"><path d="M5.5 2.5v16.6m3-16.58v16.6m6-16.62v16.6m3-16.6v16.6m-6-16.58v16.6M19.2 4.5H3.03"/><path stroke-width=".99" d="M19 7.5H3.03m15.94 3H3m16 3H3.03m15.97 3H3.03"/></g></g><defs><linearGradient id="a" x1="0" x2="1" y1="0" y2="0" gradientTransform="matrix(.87 24.42 -24.45 .87 10.35 2.48)" gradientUnits="userSpaceOnUse"><stop offset="0" stop-color="#fafafa"/><stop offset="1" stop-color="#d4d4d4"/></linearGradient></defs></svg>

<svg xmlns="http://www.w3.org/2000/svg" xml:space="preserve" style="fill-rule:evenodd;clip-rule:evenodd;stroke-linecap:round" viewBox="0 0 22 22"><path d="M2.51 2.48h17v16.98h-17z" style="fill:#ececec;fill-opacity:.99"/><path d="M19.2 5H3.03M19.2 8H3.03M19.2 11H3.03M19.2 14H3.03M19.2 17H3.03" style="fill:none;fill-rule:nonzero;stroke:#b6b6b6;stroke-width:1px"/><path d="M2.51 2.52H19.5V19.5H2.51z" style="fill:none;stroke:#000;stroke-width:1.02px;stroke-linejoin:round"/><path d="M6 2.89V19" style="fill:none;fill-rule:nonzero;stroke:#b6b6b6;stroke-width:1px"/><path d="M9 3v16.23M12 3v16.23M15 2.98V19.1M18 2.98V19.1" style="fill:none;fill-rule:nonzero;stroke:#b6b6b6;stroke-width:.98px"/><path d="M5.5 2.5v16.6M8.5 2.52v16.6M14.5 2.5v16.6M17.5 2.5v16.6M11.5 2.52v16.6M19.2 4.5H3.03" style="fill:none;fill-rule:nonzero;stroke:#333;stroke-width:1px"/><path d="M19 7.5H3.03M18.97 10.5H3M19 13.5H3.03M19 16.5H3.03" style="fill:none;fill-rule:nonzero;stroke:#333;stroke-width:.99px"/></svg>
